flaticon/household/radiator-3.svg

<svg xmlns="http://www.w3.org/2000/svg" width="32" height="32" viewBox="0 0 24 24">
    <path d="M 24 1.800781 L 0 1.800781 L 0 21 L 1.199219 21 L 1.199219 22.199219 L 3.601562 22.199219 L 3.601562 21 L 20.398438 21 L 20.398438 22.199219 L 22.800781 22.199219 L 22.800781 21 L 24 21 Z M 2.800781 21.398438 L 2 21.398438 L 2 21 L 2.800781 21 Z M 22 21.398438 L 21.199219 21.398438 L 21.199219 21 L 22 21 Z M 23.199219 20.199219 L 0.800781 20.199219 L 0.800781 2.601562 L 23.199219 2.601562 Z M 23.199219 20.199219"/>
    <path d="M5.199219 3L1.199219 3 1.199219 9.800781 5.199219 9.800781zM4.398438 9L2 9 2 3.800781 4.398438 3.800781zM9.601562 3L5.601562 3 5.601562 9.800781 9.601562 9.800781zM8.800781 9L6.398438 9 6.398438 3.800781 8.800781 3.800781zM14 3L10 3 10 9.800781 14 9.800781zM13.199219 9L10.800781 9 10.800781 3.800781 13.199219 3.800781zM18.398438 3L14.398438 3 14.398438 9.800781 18.398438 9.800781zM17.601562 9L15.199219 9 15.199219 3.800781 17.601562 3.800781zM22.800781 3L18.800781 3 18.800781 9.800781 22.800781 9.800781zM22 9L19.601562 9 19.601562 3.800781 22 3.800781zM22 9"/>
    <path d="M2.800781 5L3.601562 5C3.820312 5 4 4.820312 4 4.601562 4 4.378906 3.820312 4.199219 3.601562 4.199219L2.800781 4.199219C2.578125 4.199219 2.398438 4.378906 2.398438 4.601562 2.398438 4.820312 2.578125 5 2.800781 5zM2.800781 6.199219L3.601562 6.199219C3.820312 6.199219 4 6.019531 4 5.800781 4 5.578125 3.820312 5.398438 3.601562 5.398438L2.800781 5.398438C2.578125 5.398438 2.398438 5.578125 2.398438 5.800781 2.398438 6.019531 2.578125 6.199219 2.800781 6.199219zM2.800781 7.398438L3.601562 7.398438C3.820312 7.398438 4 7.222656 4 7 4 6.777344 3.820312 6.601562 3.601562 6.601562L2.800781 6.601562C2.578125 6.601562 2.398438 6.777344 2.398438 7 2.398438 7.222656 2.578125 7.398438 2.800781 7.398438zM2.800781 8.601562L3.601562 8.601562C3.820312 8.601562 4 8.421875 4 8.199219 4 7.980469 3.820312 7.800781 3.601562 7.800781L2.800781 7.800781C2.578125 7.800781 2.398438 7.980469 2.398438 8.199219 2.398438 8.421875 2.578125 8.601562 2.800781 8.601562zM7.199219 5L8 5C8.222656 5 8.398438 4.820312 8.398438 4.601562 8.398438 4.378906 8.222656 4.199219 8 4.199219L7.199219 4.199219C6.980469 4.199219 6.800781 4.378906 6.800781 4.601562 6.800781 4.820312 6.980469 5 7.199219 5zM7.199219 6.199219L8 6.199219C8.222656 6.199219 8.398438 6.019531 8.398438 5.800781 8.398438 5.578125 8.222656 5.398438 8 5.398438L7.199219 5.398438C6.980469 5.398438 6.800781 5.578125 6.800781 5.800781 6.800781 6.019531 6.980469 6.199219 7.199219 6.199219zM7.199219 7.398438L8 7.398438C8.222656 7.398438 8.398438 7.222656 8.398438 7 8.398438 6.777344 8.222656 6.601562 8 6.601562L7.199219 6.601562C6.980469 6.601562 6.800781 6.777344 6.800781 7 6.800781 7.222656 6.980469 7.398438 7.199219 7.398438zM7.199219 8.601562L8 8.601562C8.222656 8.601562 8.398438 8.421875 8.398438 8.199219 8.398438 7.980469 8.222656 7.800781 8 7.800781L7.199219 7.800781C6.980469 7.800781 6.800781 7.980469 6.800781 8.199219 6.800781 8.421875 6.980469 8.601562 7.199219 8.601562zM11.601562 5L12.398438 5C12.621094 5 12.800781 4.820312 12.800781 4.601562 12.800781 4.378906 12.621094 4.199219 12.398438 4.199219L11.601562 4.199219C11.378906 4.199219 11.199219 4.378906 11.199219 4.601562 11.199219 4.820312 11.378906 5 11.601562 5zM11.601562 6.199219L12.398438 6.199219C12.621094 6.199219 12.800781 6.019531 12.800781 5.800781 12.800781 5.578125 12.621094 5.398438 12.398438 5.398438L11.601562 5.398438C11.378906 5.398438 11.199219 5.578125 11.199219 5.800781 11.199219 6.019531 11.378906 6.199219 11.601562 6.199219zM11.601562 7.398438L12.398438 7.398438C12.621094 7.398438 12.800781 7.222656 12.800781 7 12.800781 6.777344 12.621094 6.601562 12.398438 6.601562L11.601562 6.601562C11.378906 6.601562 11.199219 6.777344 11.199219 7 11.199219 7.222656 11.378906 7.398438 11.601562 7.398438zM11.601562 8.601562L12.398438 8.601562C12.621094 8.601562 12.800781 8.421875 12.800781 8.199219 12.800781 7.980469 12.621094 7.800781 12.398438 7.800781L11.601562 7.800781C11.378906 7.800781 11.199219 7.980469 11.199219 8.199219 11.199219 8.421875 11.378906 8.601562 11.601562 8.601562zM16 5L16.800781 5C17.019531 5 17.199219 4.820312 17.199219 4.601562 17.199219 4.378906 17.019531 4.199219 16.800781 4.199219L16 4.199219C15.777344 4.199219 15.601562 4.378906 15.601562 4.601562 15.601562 4.820312 15.777344 5 16 5zM16 6.199219L16.800781 6.199219C17.019531 6.199219 17.199219 6.019531 17.199219 5.800781 17.199219 5.578125 17.019531 5.398438 16.800781 5.398438L16 5.398438C15.777344 5.398438 15.601562 5.578125 15.601562 5.800781 15.601562 6.019531 15.777344 6.199219 16 6.199219zM16 7.398438L16.800781 7.398438C17.019531 7.398438 17.199219 7.222656 17.199219 7 17.199219 6.777344 17.019531 6.601562 16.800781 6.601562L16 6.601562C15.777344 6.601562 15.601562 6.777344 15.601562 7 15.601562 7.222656 15.777344 7.398438 16 7.398438zM16 8.601562L16.800781 8.601562C17.019531 8.601562 17.199219 8.421875 17.199219 8.199219 17.199219 7.980469 17.019531 7.800781 16.800781 7.800781L16 7.800781C15.777344 7.800781 15.601562 7.980469 15.601562 8.199219 15.601562 8.421875 15.777344 8.601562 16 8.601562zM20.398438 5L21.199219 5C21.421875 5 21.601562 4.820312 21.601562 4.601562 21.601562 4.378906 21.421875 4.199219 21.199219 4.199219L20.398438 4.199219C20.179688 4.199219 20 4.378906 20 4.601562 20 4.820312 20.179688 5 20.398438 5zM20.398438 6.199219L21.199219 6.199219C21.421875 6.199219 21.601562 6.019531 21.601562 5.800781 21.601562 5.578125 21.421875 5.398438 21.199219 5.398438L20.398438 5.398438C20.179688 5.398438 20 5.578125 20 5.800781 20 6.019531 20.179688 6.199219 20.398438 6.199219zM20.398438 7.398438L21.199219 7.398438C21.421875 7.398438 21.601562 7.222656 21.601562 7 21.601562 6.777344 21.421875 6.601562 21.199219 6.601562L20.398438 6.601562C20.179688 6.601562 20 6.777344 20 7 20 7.222656 20.179688 7.398438 20.398438 7.398438zM20.398438 8.601562L21.199219 8.601562C21.421875 8.601562 21.601562 8.421875 21.601562 8.199219 21.601562 7.980469 21.421875 7.800781 21.199219 7.800781L20.398438 7.800781C20.179688 7.800781 20 7.980469 20 8.199219 20 8.421875 20.179688 8.601562 20.398438 8.601562zM17.601562 19.800781L20 19.800781 20 17.398438 17.601562 17.398438zM18.398438 18.199219L19.199219 18.199219 19.199219 19 18.398438 19zM20.398438 19.800781L22.800781 19.800781 22.800781 17.398438 20.398438 17.398438zM21.199219 18.199219L22 18.199219 22 19 21.199219 19zM21.199219 18.199219"/>
</svg>

<svg xmlns="http://www.w3.org/2000/svg" width="32" height="32" viewBox="0 0 24 24">
    <path d="M24 1.8H0V21h1.2v1.2h2.402V21h16.796v1.2h2.403V21H24zM2.8 21.399H2V21h.8zm19.2 0h-.8V21h.8zm1.2-1.199H.8V2.602h22.4zm0 0"/>
    <path d="M5.2 3h-4v6.8h4zm-.802 6H2V3.8h2.398zm0 0M9.602 3h-4v6.8h4zM8.8 9H6.398V3.8h2.403zm0 0M14 3h-4v6.8h4zm-.8 6h-2.4V3.8h2.4zm0 0M18.398 3h-4v6.8h4zm-.796 6h-2.403V3.8h2.403zm0 0M22.8 3h-4v6.8h4zM22 9h-2.398V3.8H22zm0 0"/>
    <path d="M2.8 5h.802a.4.4 0 0 0 0-.8H2.8a.401.401 0 0 0 0 .8zm0 0M2.8 6.2h.802a.4.4 0 0 0 0-.802H2.8a.401.401 0 0 0 0 .8zm0 0M2.8 7.398h.802a.398.398 0 1 0 0-.796H2.8a.398.398 0 1 0 0 .796zm0 0M2.8 8.602h.802a.401.401 0 0 0 0-.801H2.8a.401.401 0 1 0 0 .8zm0 0M7.2 5H8c.223 0 .398-.18.398-.398A.398.398 0 0 0 8 4.199h-.8A.401.401 0 0 0 7.2 5zm0 0M7.2 6.2H8c.223 0 .398-.18.398-.4A.398.398 0 0 0 8 5.399h-.8a.401.401 0 0 0 0 .801zm0 0M7.2 7.398H8A.395.395 0 0 0 8.398 7 .395.395 0 0 0 8 6.602h-.8a.398.398 0 1 0 0 .796zm0 0M7.2 8.602H8c.223 0 .398-.18.398-.403A.398.398 0 0 0 8 7.801h-.8a.4.4 0 0 0 0 .8zm0 0M11.602 5h.796a.401.401 0 1 0 0-.8h-.796a.401.401 0 0 0 0 .8zm0 0M11.602 6.2h.796a.401.401 0 1 0 0-.802h-.796a.401.401 0 0 0 0 .8zm0 0M11.602 7.398h.796a.398.398 0 1 0 0-.796h-.796a.398.398 0 1 0 0 .796zm0 0M11.602 8.602h.796a.401.401 0 0 0 0-.8l-.796-.001a.401.401 0 1 0 0 .8zm0 0M16 5h.8a.4.4 0 0 0 0-.8H16a.398.398 0 0 0-.398.402c0 .218.175.398.398.398zm0 0M16 6.2h.8a.4.4 0 0 0 0-.802H16a.398.398 0 0 0-.398.403c0 .219.175.398.398.398zm0 0M16 7.398h.8a.398.398 0 1 0 0-.796H16a.395.395 0 0 0-.398.398c0 .223.175.398.398.398zm0 0M16 8.602h.8a.401.401 0 0 0 0-.801H16a.398.398 0 0 0-.398.398c0 .223.175.403.398.403zm0 0M20.398 5h.801a.401.401 0 1 0 0-.8h-.8a.401.401 0 0 0 0 .8zm0 0M20.398 6.2h.801a.401.401 0 1 0 0-.802h-.8a.401.401 0 0 0 0 .801zm0 0M20.398 7.398h.801a.398.398 0 1 0 0-.796h-.8a.398.398 0 1 0 0 .796zm0 0M20.398 8.602h.801a.401.401 0 0 0 0-.8l-.8-.001a.4.4 0 0 0 0 .8zm0 0M17.602 19.8H20v-2.402h-2.398zm.796-1.6h.801v.8h-.8zm0 0M20.398 19.8h2.403v-2.402h-2.403zm.801-1.6H22v.8h-.8zm0 0"/>
</svg>
